!!!OTL: Alte Zecher - Melodie
!!!ARE: Europa, Mitteleuropa, Deutschland
!!!SCT: A0336
!!!YEM: Copyright 1995, estate of Helmut Schaffrath.
**kern
*ICvox
*Ivox
*M3/2
*k[b-]
*d:
{2d
=1
1d
2a
=2
1a
2e
=3
2g
1fn
=4
1e}
{2e
=5
1d
2e
=6
2fn
2g
2e
=7
1d}
{2d
=8
1d
2a
=9
1a
2e
=10
2g
1fn
=11
1e}
{2e
=12
1d
2e
=13
2fn
2g
2e
=14
1d}
{2d
=15
1g
2g
=16
1g
2a
=17
2ccn
1b
=18
1a}
{2b
=19
1ccn
2g
=20
1a
2e
=21
2g
1fn
=22
1e}
{2e
=23
1g
2g
=24
1d
2e
=25
2fn
1d
=26
1cn}
{2ccn
=27
2b
1a
=28
2dd
2ccn
2b
=29
2ccn
1b
=30
1a}
==
!!!AGN: Romanze, Ballade, Lied, Trinklied
!! Trillers Singbuch 1555.
!!!ONB: ESAC (Essen Associative Code) Database: ALTDEU
!!!AMT: simple triple
!!!AIN: vox
!!!EED: Helmut Schaffrath
!!!EEV: 1.0
*-
